docs/styles/img/workProcess/33.svg

<svg width="219" height="333" viewBox="0 0 219 333" fill="none" xmlns="http://www.w3.org/2000/svg">
<path d="M124.657 172.096C154.968 174.152 178.051 183.404 193.906 199.853C210.228 215.891 218.389 235.012 218.389 257.218C218.389 277.779 210.927 298.546 196.005 319.518C181.549 340.902 159.399 360.64 129.554 378.734C99.709 397.239 62.8694 411.631 19.0349 421.912C17.1696 422.323 15.5375 421.295 14.1385 418.828C13.2059 416.772 13.6722 415.538 15.5375 415.127C72.429 400.734 113.232 379.351 137.948 350.976C162.663 322.602 175.02 293.611 175.02 264.003C175.02 242.209 168.725 223.704 156.134 208.489C143.544 192.862 123.492 185.049 95.9784 185.049C82.9213 185.049 71.0301 186.283 60.3046 188.75C58.9056 189.161 57.7398 188.133 56.8072 185.666C55.8745 183.199 56.3409 181.759 58.2062 181.348C95.5121 173.124 121.626 161.61 136.549 146.806C151.937 132.002 159.632 112.057 159.632 86.9731C159.632 66.0008 154.269 49.3464 143.543 37.0098C132.818 24.6732 116.264 18.5049 93.88 18.5049C73.3617 18.5049 56.1077 24.4676 42.118 36.393C28.1282 48.3184 17.1696 67.2345 9.24211 93.1414C8.77578 93.5526 7.84313 93.7582 6.44416 93.7582C2.24724 93.7582 0.381944 92.9358 0.848269 91.2909L26.7293 1.23367C27.6619 0.411227 28.5946 0 29.5272 0C30.9262 0 32.3251 0.411227 33.7241 1.23367C35.1231 1.64488 35.5894 2.05609 35.1231 2.46731C34.1904 5.75707 33.7241 8.01881 33.7241 9.25247C33.7241 16.2432 37.6879 19.7386 45.6154 19.7386C50.745 19.7386 57.7398 18.0937 66.6 14.8039C76.3928 11.9254 85.0198 9.86928 92.481 8.63562C99.9422 6.99073 108.103 6.16831 116.963 6.16831C142.145 6.16831 161.963 13.1591 176.419 27.1406C190.875 40.7108 198.103 57.1596 198.103 76.487C198.103 96.2255 191.575 114.936 178.518 132.618C165.461 150.301 147.507 163.46 124.657 172.096Z" fill="#FF3D00" fill-opacity="0.2"/>
</svg>

<svg width="219" height="333" fill="none" xmlns="http://www.w3.org/2000/svg"><path d="M124.657 172.096c30.311 2.056 53.394 11.308 69.249 27.757 16.322 16.038 24.483 35.159 24.483 57.365 0 20.561-7.462 41.328-22.384 62.3-14.456 21.384-36.606 41.122-66.451 59.216-29.845 18.505-66.685 32.897-110.52 43.178-1.864.411-3.496-.617-4.895-3.084-.933-2.056-.467-3.29 1.399-3.701 56.891-14.393 97.694-35.776 122.41-64.151 24.715-28.374 37.072-57.365 37.072-86.973 0-21.794-6.295-40.299-18.886-55.514-12.59-15.627-32.642-23.44-60.156-23.44-13.057 0-24.948 1.234-35.673 3.701-1.4.411-2.565-.617-3.498-3.084-.933-2.467-.466-3.907 1.4-4.318 37.305-8.224 63.419-19.738 78.342-34.542 15.388-14.804 23.083-34.749 23.083-59.833 0-20.972-5.363-37.627-16.089-49.963-10.725-12.337-27.279-18.505-49.663-18.505-20.518 0-37.772 5.963-51.762 17.888C28.128 48.318 17.17 67.234 9.242 93.141c-.466.412-1.399.617-2.798.617-4.197 0-6.062-.822-5.596-2.467L26.73 1.234C27.662.41 28.595 0 29.527 0c1.4 0 2.798.411 4.197 1.234 1.4.41 1.865.822 1.4 1.233-.934 3.29-1.4 5.552-1.4 6.785 0 6.991 3.964 10.487 11.891 10.487 5.13 0 12.125-1.645 20.985-4.935 9.793-2.879 18.42-4.935 25.881-6.168 7.461-1.645 15.622-2.468 24.482-2.468 25.182 0 45 6.991 59.456 20.973 14.456 13.57 21.684 30.019 21.684 49.346 0 19.739-6.528 38.449-19.585 56.131-13.057 17.683-31.011 30.842-53.861 39.478z" fill="#FF3D00" fill-opacity=".2"/></svg>
